img/decorate-pencil.svg

<svg width="44" height="132" viewBox="0 0 44 132" fill="none" xmlns="http://www.w3.org/2000/svg">
<path d="M32.7747 128.836C35.6849 128.398 38.6226 127.868 40.4614 125.449C42.5028 122.758 41.4863 119.604 40.4888 116.648C38.6637 118.651 35.7303 119.632 33.2096 120.302C30.2646 121.085 26.0624 121.303 22.7173 120.25C23.0783 122.343 23.3865 124.732 24.3133 126.589C25.3245 128.615 26.5416 128.983 28.8691 129.165C30.1517 129.264 31.5165 129.027 32.7747 128.836ZM39.3266 109.294C39.1915 109.126 39.1546 108.951 39.1789 108.794C36.7078 112.593 30.69 114.796 26.2936 114.929C24.2025 114.993 21.7061 114.768 19.6108 113.878C21.1962 118.32 25.9273 119.454 30.5422 118.639C34.2567 117.983 44.0577 115.151 39.3266 109.294ZM37.7486 103.301C37.6346 103.373 37.5111 103.43 37.3759 103.467C32.7103 108.595 24.0621 108.298 17.6801 107.164C16.1717 112.573 24.9794 113.006 28.278 112.474C32.3863 111.81 39.7066 108.874 37.7486 103.301ZM35.3735 102.154C32.6048 74.3566 26.245 47.5381 18.4043 20.7676C16.7354 22.5462 14.8259 23.9442 12.7475 24.9396C12.9533 25.063 13.1507 25.2177 13.3111 25.4446C16.689 30.2219 17.3983 37.3968 18.818 43.0033C20.5312 49.7788 22.1315 56.5825 23.6219 63.4102C26.529 76.7426 28.9842 90.165 31.0447 103.651C31.0858 103.92 31.0732 104.17 31.0373 104.409C32.5573 104.03 34.0425 103.457 35.4939 102.601C35.4369 102.465 35.3915 102.32 35.3735 102.154ZM17.3424 19.4711C13.8748 16.2413 10.6068 12.7866 7.3187 9.356C6.55658 10.9809 4.95212 12.0118 3.12388 12.1185C3.2421 15.9861 3.34767 19.8538 3.29278 23.7183C3.29067 23.8166 3.25795 23.8908 3.23895 23.9755C8.40172 24.3164 13.4019 22.9299 17.3424 19.4711ZM5.29413 9.27444C5.04713 9.16883 4.81173 9.04441 4.59006 8.90743C4.52884 9.26816 4.44228 9.62576 4.33884 9.98126C4.76634 9.84952 5.15163 9.6268 5.48835 9.32672L5.29413 9.27444ZM19.6319 104.885C22.0101 105.019 24.3017 105.139 26.5184 105.034L26.4814 104.896C24.4273 91.4092 21.9795 77.9859 19.0788 64.6503C17.6633 58.1477 16.1464 51.6661 14.5272 45.2095C13.0473 39.305 9.85101 32.355 10.268 26.2612C10.2775 26.1232 10.3176 26.0061 10.3503 25.8858C7.94677 26.6324 5.36907 26.8739 2.70271 26.554C10.2585 52.0781 14.9568 78.7376 19.6319 104.885ZM24.174 131.19C21.0284 129.527 20.5798 123.258 20.1048 120.226C20.0404 119.812 20.1565 119.459 20.3687 119.19C18.2934 117.885 16.9982 115.769 17.373 112.544L17.3877 112.495C17.012 112.159 16.6647 111.793 16.3712 111.37C14.9462 109.3 15.0645 106.3 17.2759 104.983C12.415 77.9984 5.73219 51.4287 0.518749 24.5308C0.431139 24.0822 0.695034 23.7643 1.02331 23.6483C0.438528 16.2454 0.452249 8.7966 0.00257831 1.38332C-0.0744806 0.118146 1.59542 -0.428696 2.44093 0.382687C8.52416 6.21607 14.8586 12.2544 19.578 19.2599L19.6488 19.4261C19.7628 19.5192 19.8588 19.6457 19.9232 19.812C29.8318 45.655 35.2954 73.2869 38.1212 100.751C38.4621 100.603 38.8601 100.827 38.9012 101.164C39.1124 101.24 39.3076 101.386 39.4427 101.661C40.7073 104.255 40.4909 106.527 39.4016 108.425C39.6021 108.272 39.8998 108.235 40.1795 108.449C42.2537 110.045 42.7097 112.785 41.5549 115.138C41.4905 115.269 41.3998 115.379 41.329 115.502C41.5497 115.523 41.7566 115.627 41.8727 115.875C43.285 118.906 44.8251 122.448 43.4856 125.777C42.1661 129.056 38.4906 130.262 35.3081 130.981C32.1857 131.688 27.1401 132.759 24.174 131.19Z" fill="#8DD9E5"/>
</svg>

<svg width="44" height="132" viewBox="0 0 44 132" fill="none" xmlns="http://www.w3.org/2000/svg"><path d="M32.775 128.836c2.91-.438 5.848-.968 7.686-3.387 2.042-2.691 1.025-5.845.028-8.801-1.825 2.003-4.759 2.984-7.28 3.654-2.944.783-7.147 1.001-10.492-.052.361 2.093.67 4.482 1.596 6.339 1.012 2.026 2.229 2.394 4.556 2.576 1.283.099 2.648-.138 3.906-.329zm6.552-19.542a.63.63 0 01-.148-.5c-2.471 3.799-8.489 6.002-12.885 6.135-2.091.064-4.588-.161-6.683-1.051 1.585 4.442 6.316 5.576 10.931 4.761 3.715-.656 13.516-3.488 8.785-9.345zm-1.578-5.993a1.374 1.374 0 01-.373.166c-4.666 5.128-13.314 4.831-19.696 3.697-1.508 5.409 7.3 5.842 10.598 5.31 4.108-.664 11.429-3.6 9.47-9.173zm-2.376-1.147c-2.768-27.797-9.128-54.616-16.969-81.386-1.669 1.778-3.578 3.176-5.656 4.172.205.123.403.278.563.505 3.378 4.777 4.087 11.952 5.507 17.558a640.275 640.275 0 014.804 20.407c2.907 13.333 5.362 26.755 7.423 40.241a2.49 2.49 0 01-.008.758 16.564 16.564 0 004.457-1.808 1.578 1.578 0 01-.12-.447zm-18.03-82.683c-3.468-3.23-6.736-6.684-10.024-10.115-.762 1.625-2.367 2.656-4.195 2.762.118 3.868.224 7.736.169 11.6-.002.099-.035.173-.054.258 5.163.34 10.163-1.046 14.103-4.505zM5.293 9.274a5.324 5.324 0 01-.704-.367 9.602 9.602 0 01-.251 1.074 3.086 3.086 0 001.15-.654l-.195-.053zm14.338 95.611c2.378.134 4.67.254 6.886.149l-.037-.138c-2.054-13.487-4.502-26.91-7.402-40.246a636.403 636.403 0 00-4.552-19.44c-1.48-5.905-4.676-12.855-4.259-18.949.01-.138.05-.255.082-.375-2.403.746-4.98.988-7.647.668 7.556 25.524 12.254 52.184 16.929 78.331zm4.542 26.305c-3.146-1.663-3.594-7.932-4.07-10.964a1.308 1.308 0 01.265-1.036c-2.076-1.305-3.37-3.421-2.996-6.646l.015-.049a6.445 6.445 0 01-1.017-1.125c-1.425-2.07-1.306-5.07.905-6.387C12.415 77.998 5.732 51.429.519 24.531c-.088-.449.176-.767.504-.883C.44 16.245.453 8.797.003 1.383-.074.118 1.595-.429 2.44.383 8.524 6.216 14.859 12.254 19.578 19.26l.07.166c.115.093.21.22.275.386 9.909 25.843 15.372 53.475 18.198 80.939.341-.148.74.076.78.413a.94.94 0 01.542.497c1.264 2.594 1.048 4.866-.041 6.764.2-.153.498-.19.777.024 2.075 1.596 2.53 4.336 1.376 6.689-.065.131-.155.241-.226.364.22.021.428.125.544.373 1.412 3.031 2.952 6.573 1.613 9.902-1.32 3.279-4.995 4.485-8.178 5.204-3.122.707-8.168 1.778-11.134.209z" fill="#8DD9E5"/></svg>
